Flat-Remix-Blue-Dark/apps/scalable/preferences-plugin.svg

<svg xmlns="http://www.w3.org/2000/svg" width="512" height="512" version="1.1" viewBox="0 0 384 384"> <rect style="paint-order:markers stroke fill;fill:rgb(20.000%,21.176%,26.274%)" width="337.5" height="337.5" x="23.25" y="23.25" rx="18.409" ry="18.409"/> <g transform="matrix(0.77843674,0,0,0.77843674,42.539823,43.371386)"> <path d="M 106.48633,108.76367 C 56.348965,108.76367 15.75,149.36264 15.75,199.5 c 0,50.13736 40.598965,90.73633 90.73633,90.73633 h 171.02734 c 50.13737,0 90.73633,-40.59897 90.73633,-90.73633 0,-50.13736 -40.59896,-90.73633 -90.73633,-90.73633 z" style="opacity:0.3;fill:rgb(100.000%,100.000%,100.000%)"/> <rect width="337.434" height="166.406" x="23.28" y="108.8" rx="83.203" ry="83.203" style="fill:rgb(100.000%,100.000%,100.000%)"/> <path style="fill:rgb(9.803%,9.803%,9.803%)" d="m 175.7534,196.50001 c 0,37.42307 -30.3153,67.73837 -67.73837,67.73837 -37.418128,0 -67.738368,-30.3153 -67.738368,-67.73837 0,-37.41814 30.32024,-67.73837 67.738368,-67.73837 37.42307,0 67.73837,30.32023 67.73837,67.73837 m 0,0"/> <path style="fill:rgb(99.215%,28.627%,28.627%)" d="m 175.7534,189.00001 c 0,37.42307 -30.3153,67.73837 -67.73837,67.73837 -37.418123,0 -67.738367,-30.3153 -67.738367,-67.73837 0,-37.41814 30.320244,-67.73837 67.738367,-67.73837 37.42307,0 67.73837,30.32023 67.73837,67.73837 m 0,0"/> <path d="m 150.013,189.00001 c 0,23.21447 -18.7835,41.99797 -41.99797,41.99797 -23.214469,0 -41.992612,-18.7835 -41.992612,-41.99797 0,-23.20913 18.778143,-41.99263 41.992612,-41.99263 23.21447,0 41.99797,18.7835 41.99797,41.99263 m 0,0"/> </g> <path style="opacity:0.3;fill:rgb(100.000%,100.000%,100.000%);paint-order:markers stroke fill" d="M 31 446.45508 L 31 456.45508 C 31 470.053 41.946996 481 55.544922 481 L 456.45508 481 C 470.053 481 481 470.053 481 456.45508 L 481 446.45508 C 481 460.053 470.053 471 456.45508 471 L 55.544922 471 C 41.946996 471 31 460.053 31 446.45508 z" transform="scale(0.75)"/> <path style="opacity:0.3;fill:rgb(100.000%,100.000%,100.000%);paint-order:markers stroke fill" d="M 55.544922 31 C 41.946996 31 31 41.946996 31 55.544922 L 31 65.544922 C 31 51.946996 41.946996 41 55.544922 41 L 456.45508 41 C 470.053 41 481 51.946996 481 65.544922 L 481 55.544922 C 481 41.946996 470.053 31 456.45508 31 L 55.544922 31 z" transform="scale(0.75)"/> </svg>

<svg width="512" height="512" version="1.1" viewBox="0 0 384 384" xmlns="http://www.w3.org/2000/svg"><rect x="23.25" y="23.25" width="337.5" height="337.5" rx="18.409" ry="18.409" fill="#333542" style="paint-order:markers stroke fill"/><g transform="matrix(.77844 0 0 .77844 42.54 43.371)"><path d="m106.49 108.76c-50.137 0-90.736 40.599-90.736 90.736s40.599 90.736 90.736 90.736h171.03c50.137 0 90.736-40.599 90.736-90.736s-40.599-90.736-90.736-90.736z" fill="#dfdfdf" opacity=".1"/><rect x="23.28" y="108.8" width="337.43" height="166.41" rx="83.203" ry="83.203" fill="#fff"/><path d="m175.75 196.5c0 37.423-30.315 67.738-67.738 67.738-37.418 0-67.738-30.315-67.738-67.738 0-37.418 30.32-67.738 67.738-67.738 37.423 0 67.738 30.32 67.738 67.738" opacity=".3"/><path d="m175.75 189c0 37.423-30.315 67.738-67.738 67.738-37.418 0-67.738-30.315-67.738-67.738 0-37.418 30.32-67.738 67.738-67.738 37.423 0 67.738 30.32 67.738 67.738" fill="#fc4848"/><path d="m150.01 189c0 23.214-18.784 41.998-41.998 41.998s-41.993-18.784-41.993-41.998c0-23.209 18.778-41.993 41.993-41.993 23.214 0 41.998 18.784 41.998 41.993" opacity=".5"/></g><path transform="scale(.75)" d="m55.545 31c-13.598 0-24.545 10.947-24.545 24.545v10c0-13.598 10.947-24.545 24.545-24.545h400.91c13.598 0 24.545 10.947 24.545 24.545v-10c0-13.598-10.947-24.545-24.545-24.545h-400.91z" fill="#fff" opacity=".1" style="paint-order:markers stroke fill"/><path transform="scale(.75)" d="m31 446.46v10c0 13.598 10.947 24.545 24.545 24.545h400.91c13.598 0 24.545-10.947 24.545-24.545v-10c0 13.598-10.947 24.545-24.545 24.545h-400.91c-13.598 0-24.545-10.947-24.545-24.545z" fill="#08090b" opacity=".5" stroke-width="1.3333" style="paint-order:markers stroke fill"/></svg>
